X:1
T:Reel de Mon Voisin
M:C|
L:1/8
K:F
"F"F2 CF AAFA|c=Bcd cAGF|"C7"E2 cE EdEE|cEEd EEcE|!
"F"F2 CF AAFA|c=Bcd cAGF|"C7"EGc=B cdc_B|AFGE "F"F2 (3CDE|!
"F"F2 CF AAFA|c=Bcd cAGF|"C7"E2 cE EdEE|eEEd EEcE|!
"F"F2 CF AAFA|c=Bcd cAGF|"C7"EGc=B cdc_B|"F"[FA][FA][FA][FA] [F3A3]e|]!
"F"fefg afcA|"Bb"BABc "Gm"dfed|"C7"cdef gfeg|!
"F"fafd cABd|(3cdc =Bc afcA|"Bb"(3_BcB AB "Bdim"dfed|!
|1"C7"cded cGGE|"F"FAGE F2Ac:|2"C7"cded cBGE|"F"FA"C7"GE "F"F4|]!
